X:1
T:Title
%%score { ( 1 4 ) | ( 2 3 ) }
L:1/8
Q:1/4=100
M:4/4
K:F
V:1 treble nm="Grand Piano"
V:4 treble 
V:2 bass 
V:3 bass 
V:1
 [CFA]4 [B,EG]2 [A,F]2 | [DFB]6 [DGB]2 | [GB]2 [EG]2 [Ec]2 [GB]2 | A8 | c4 =B2 c2 | A6 A2 | %6
w: Robert~Lowry * *||||||
 B2 A2 G2 F2 | [EG]8 | [FA]4 [EG]2 [EA]2 | F6 A2 | G2 A2 B2 [Ec]2 | [FA]8 | [Fd]4 [Fd]2 [Fd]2 | %13
w: |||||||
 [Fc]6 [CFA]2 | [B,EG]2 [A,F]2 [B,EG]2 [CEA]2 | [A,F]8 | [EG]4 [GB]2 [FA]2 | [FA]2 G4 z2 | %18
w: |||||
 [CFA]4 [CGc]2 [CGB]2 | [GB]2 A4 z2 | d4 f2 d2 | c2 A4 [A,CF]2 | [B,DG]2 [DFB]2 [CFA]2 [B,EG]2 | %23
w: |||||
 [A,F]8 |] %24
w: |
V:2
 F,4 C,2 D,2 | B,,6 G,,2 | [C,C]2 [C,C]2 [C,G,]2 [E,C]2 | [F,CF]8 | [F,A,F]4 [F,_A,F]2 [F,=A,F]2 | %5
 [F,CF]6 [F,CF]2 | [G,CE]2 [F,CF]2 [E,C]2 [D,=B,D]2 | [C,C]8 | [F,C]4 [C,B,]2 [C,C]2 | %9
 [F,A,]6[K:treble] [F,CF]2 | [B,CE]2 [A,CF]2[K:bass] [G,CE]2 [C,C]2 | [F,C]8 | %12
 [B,,B,]4 [B,,B,]2 [D,B,]2 | [F,A,]6 F,2 | C,2 C,2 C,2 C,2 | F,8 | [C,C]4 [C,C]2 [C,C]2 | %17
 z2 E4 z2 | F,4 E,2 C,2 | z2[K:treble] F4 z2 | [B,F]4 [B,DF]2 [B,F]2 | %21
 [F,F]2- [F,CF]4[K:bass] F,2 | B,,2 B,,2 C,2 C,2 | F,8 |] %24
V:3
 x8 | x8 | x8 | x8 | x8 | x8 | x8 | x8 | x8 | x6[K:treble] x2 | x4[K:bass] x4 | x8 | x8 | x8 | x8 | %15
 x8 | x8 | [C,C]6 z2 | x8 | F,6[K:treble] z2 | x8 | A,2 z2 z4[K:bass] | x8 | x8 |] %24
V:4
 x8 | x8 | x8 | x8 | x8 | x8 | x8 | x8 | x8 | x8 | x8 | x8 | x8 | x8 | x8 | x8 | x8 | x8 | x8 | %19
 C6 z2 | x8 | x8 | x8 | x8 |] %24

